!!!COM: Gaspar van Weerbeke
!!!CDT: ~1450-~1517
!!!OPR: Motet cycle Quam pulchra es
!!!OTL: Mater patris filia
!!!OMV: 7
!!!AGN: Motet; Motet cycle
!!!SCT: Gas0302g
!!!SCA: Gas0302g
!!!voices: 4
**kern	**text	**kern	**text	**kern	**text	**kern	**text
*part4	*part4	*part3	*part3	*part2	*part2	*part1	*part1
*staff4	*staff4	*staff3	*staff3	*staff2	*staff2	*staff1	*staff1
*I"Bassus	*	*I"Tenor	*	*I"Altus	*	*I"Cantus	*
*I'B	*	*I'T	*	*I'A	*	*I'C	*
*clefF4	*	*clefGv2	*	*clefGv2	*	*clefG2	*
*k[b-]	*	*k[b-]	*	*k[b-]	*	*k[b-]	*
*M2/1	*	*M2/1	*	*M2/1	*	*M2/1	*
*met(C)	*	*met(C)	*	*met(C)	*	*met(C)	*
=1	=1	=1	=1	=1	=1	=1	=1
0G	Ma-	0r	.	0r	.	0r	.
=2	=2	=2	=2	=2	=2	=2	=2
1A	ter	0r	.	0r	.	1r	.
2G	.	.	.	.	.	[1g	Ma-
[2B-	pa-	.	.	.	.	.	.
=3	=3	=3	=3	=3	=3	=3	=3
2B-]	.	0r	.	0r	.	1g]	.
4A	.	.	.	.	.	.	.
4G	.	.	.	.	.	.	.
1F	.	.	.	.	.	1a	.
=4	=4	=4	=4	=4	=4	=4	=4
1G	.	0G	Ma-	0r	.	2g	-ter
.	.	.	.	.	.	1b-	pa-
1E-i	.	.	.	.	.	.	.
.	.	.	.	.	.	4a	.
.	.	.	.	.	.	4g	.
!!LO:LB:g=ap
=5	=5	=5	=5	=5	=5	=5	=5
1D	.	1A	.	1r	.	1f	.
2E-i	.	2G	-ter	[1g	Ma-	1g	-tris
[2G	.	[2B-	pa-	.	.	.	.
=6	=6	=6	=6	=6	=6	=6	=6
4G]	.	2B-]	.	1g]	.	1r	.
4F	.	.	.	.	.	.	.
2E-i	.	4A	.	.	.	.	.
.	.	4G	.	.	.	.	.
1D	-tris	1F	.	1a	.	1dd	fi-
=7	=7	=7	=7	=7	=7	=7	=7
0r	.	0G	-tris	2g	-ter	2b-	.
.	.	.	.	1b-	pa-	1dd	.
.	.	.	.	4a	.	4cc	.
.	.	.	.	4g	.	4b-	.
=8	=8	=8	=8	=8	=8	=8	=8
1D	fi-	1d	fi-	1f	.	1a	.
2G	.	2e	.	2g	-tris	2g	.
2F	.	[2f	.	2c	.	2a	.
!!LO:LB:g=ap
=9	=9	=9	=9	=9	=9	=9	=9
2D	.	2f]	.	1d	fi-	2f	.
1G	-li-	2d	.	.	.	1b-	.
.	.	2B-	.	2e	.	.	.
[2F	.	[2c	.	[2f	.	[2a	.
=10	=10	=10	=10	=10	=10	=10	=10
2F]	.	2c]	.	2f]	.	2a]	.
2G	.	2B-	.	1.d	.	1g	.
1D	-a,	1A	-li-	.	.	.	.
.	.	.	.	.	.	2f#i	-li-
=11	=11	=11	=11	=11	=11	=11	=11
0r	.	0G	-a,	2.B-	-li-	1g	-a,
.	.	.	.	4c	.	.	.
.	.	.	.	2d	.	1r	.
.	.	.	.	2e-i	.	.	.
=12	=12	=12	=12	=12	=12	=12	=12
1G	Mu-	1B-	Mu-	0d	-a,	1g	Mu-
1D	-li-	1A	-li-	.	.	1f	-li-
!!LO:LB:g=ap
=13	=13	=13	=13	=13	=13	=13	=13
1.G	-er	1.B-	-er	1.d	Mu-	1.g	-er
2D	lae-	2A	lae-	2d	-li-	2f	lae-
=14	=14	=14	=14	=14	=14	=14	=14
2G	-ti-	2B-	-ti-	1e-i	-er	2g	-ti-
2C	.	2c	.	.	.	2a	.
1D	-ti-	1A	-ti-	2d	lae-	1f#i	-ti-
.	.	.	.	[2d	-ti-	.	.
=15	=15	=15	=15	=15	=15	=15	=15
0G	-ae,	0B-	-ae,	2d]	.	1.g	-ae,
.	.	.	.	2d	-ti-	.	.
.	.	.	.	2e	-ae,	.	.
.	.	.	.	[2g	Stel-	2a	.
=16	=16	=16	=16	=16	=16	=16	=16
1G	Stel-	1B-	Stel-	4g]	.	1b-	Stel-
.	.	.	.	4f	.	.	.
.	.	.	.	4e	.	.	.
.	.	.	.	4d	.	.	.
1G	-la	1B-	-la	1e	.	1b-	-la
!!LO:LB:g=ap
=17	=17	=17	=17	=17	=17	=17	=17
1.F	ma-	0c	ma-	2f	-la	1.a	ma-
.	.	.	.	1f	ma-	.	.
2G	.	.	.	4e	.	2b-	-ris
.	.	.	.	4d	.	.	.
=18	=18	=18	=18	=18	=18	=18	=18
1A	-ris	1c	-ris	2c	-ris	1.cc	ex-
.	.	.	.	1.f	ex-	.	.
1A	ex-	1c	ex-	.	.	.	.
.	.	.	.	.	.	2a	.
=19	=19	=19	=19	=19	=19	=19	=19
*	*	*lig	*	*	*	*	*
1G	.	1d	.	4g	-i-	1b-	.
.	.	.	.	4f	.	.	.
.	.	.	.	4e	.	.	.
.	.	.	.	4d	.	.	.
1E	.	1e	.	1c	.	1g	.
*	*	*Xlig	*	*	*	*	*
=20	=20	=20	=20	=20	=20	=20	=20
1D	.	1f	.	1d	.	1a	.
1G	-i-	2.d	-i-	1B-	.	1b-	.
.	.	4e	.	.	.	.	.
!!LO:LB:g=ap
=21	=21	=21	=21	=21	=21	=21	=21
2.F	.	2.f	.	1c	.	2.a	-i-
4G	.	4e	.	.	.	4b-	.
2A	.	2c	.	2A	.	2cc	.
2D	.	2f	.	[2a	.	2dd	.
=22	=22	=22	=22	=22	=22	=22	=22
2A	.	2e	.	2a]	.	2cc	.
2B-	.	2d	.	2g	.	1dd	.
1A	-mi-	1e	-mi-	1a	-mi-	.	.
.	.	.	.	.	.	2cc#i	-mi-
=23	=23	=23	=23	=23	=23	=23	=23
0D	-a,	0d	-a,	1f	-a,	1.dd	-a,
.	.	.	.	1r	.	.	.
*	*	*	*	*	*	*	*edit
.	.	.	.	.	.	2ee	ex-
=24	=24	=24	=24	=24	=24	=24	=24
*	*	*	*edit	*	*	*col	*
0r	.	2.d	ex-	0r	.	2.ff	.
.	.	4e	.	.	.	4ee	.
*	*	*	*	*	*	*Xcol	*
.	.	2f	.	.	.	2cc	.
.	.	2d	.	.	.	2ff	.
!!LO:LB:g=ap
=25	=25	=25	=25	=25	=25	=25	=25
0r	.	2c	.	0r	.	2ee	.
*	*	*	*	*	*	*lig	*
.	.	1f	-i-	.	.	1dd	-i-
*	*	*	*	*	*	*col	*
.	.	2g	.	.	.	[2ee	.
=26	=26	=26	=26	=26	=26	=26	=26
0r	.	2e	.	0r	.	4ee]	.
*	*	*	*	*	*	*Xlig	*
.	.	.	.	.	.	4dd	.
*	*	*	*	*	*	*Xcol	*
.	.	2f	.	.	.	1cc	.
.	.	1d	-mi-	.	.	.	.
.	.	.	.	.	.	2bni	-mi-
=27	=27	=27	=27	=27	=27	=27	=27
0r	.	0c	-a,	0r	.	1cc	-a,
.	.	.	.	.	.	1r	.
*	*	*	*Xedit	*	*	*	*Xedit
=28	=28	=28	=28	=28	=28	=28	=28
0r	.	0r	.	1e-X	Au-	1cc	Au-
.	.	.	.	1e-	-di	1cc	-di
!!LO:LB:g=ap
=29	=29	=29	=29	=29	=29	=29	=29
0r	.	0r	.	1.d	nos-	1b-	nos-
.	.	.	.	.	.	1a	-tra
.	.	.	.	2c	-tra	.	.
=30	=30	=30	=30	=30	=30	=30	=30
0r	.	0r	.	2B-	su-	2b-	su-
*	*	*	*	*	*	*lig	*
.	.	.	.	1c	-spi-	1a	-spi-
.	.	.	.	2B-	.	[2g	.
=31	=31	=31	=31	=31	=31	=31	=31
0r	.	0r	.	1A	-ri-	2g]	.
*	*	*	*	*	*	*Xlig	*
.	.	.	.	.	.	2f#i	-ri-
.	.	.	.	[1G	-a,	1g	-a.
=32	=32	=32	=32	=32	=32	=32	=32
1.G	su-	0r	.	2G]	.	0r	.
*	*	*	*	*	*edit	*	*
.	.	.	.	1B-	su-	.	.
2E	.	.	.	[2c	.	.	.
!!LO:LB:g=ap
=33	=33	=33	=33	=33	=33	=33	=33
1F	.	0r	.	2c]	.	0r	.
.	.	.	.	2.d	.	.	.
2G	.	.	.	.	.	.	.
.	.	.	.	4e	.	.	.
[2A	-spi-	.	.	[2f	-spi-	.	.
=34	=34	=34	=34	=34	=34	=34	=34
2A]	.	0r	.	2f]	.	0r	.
4G	.	.	.	4e	.	.	.
4F	.	.	.	4d	.	.	.
1E	-ri-	.	.	1c#i	-ri-	.	.
=35	=35	=35	=35	=35	=35	=35	=35
0D	-a.	0f	Re-	1d	-a.	1.dd	Re-
.	.	.	.	1r	.	.	.
.	.	.	.	.	.	4cc	.
.	.	.	.	.	.	4b-	.
*	*	*	*	*	*Xedit	*	*
=36	=36	=36	=36	=36	=36	=36	=36
0r	.	1e	-gi-	0r	.	4cc	-gi-
.	.	.	.	.	.	4b-	.
.	.	.	.	.	.	4a	.
.	.	.	.	.	.	4g	.
.	.	1d	-na	.	.	2f	-na
.	.	.	.	.	.	[2b-	po-
!!LO:LB:g=ap
=37	=37	=37	=37	=37	=37	=37	=37
*	*	*lig	*	*	*	*	*
0r	.	1d	po-	0r	.	2b-]	.
.	.	.	.	.	.	4a	.
.	.	.	.	.	.	4g	.
.	.	1c	.	.	.	4a	.
.	.	.	.	.	.	4g	.
.	.	.	.	.	.	4f	.
.	.	.	.	.	.	4e	.
*	*	*Xlig	*	*	*	*	*
=38	=38	=38	=38	=38	=38	=38	=38
0r	.	1B-	-li	0r	.	2d	-li
.	.	.	.	.	.	2g	cu-
.	.	2A	cu-	.	.	2f	.
*	*	*	*	*	*	*lig	*
.	.	[2c	.	.	.	[2a	.
=39	=39	=39	=39	=39	=39	=39	=39
1r	.	2c]	.	0r	.	2a]	.
.	.	2B-	.	.	.	1g	.
1D	Ma-	1A	-ri-	.	.	.	.
*	*	*	*	*	*	*Xlig	*
.	.	.	.	.	.	2f	.
!!LO:LB:g=ap
=40	=40	=40	=40	=40	=40	=40	=40
2E	.	1G	-ae,	0r	.	4g	.
.	.	.	.	.	.	4f	.
1G	.	.	.	.	.	4e	.
.	.	.	.	.	.	4d	.
.	.	1r	.	.	.	2e	.
*	*	*	*	*	*	*lig	*
2A	.	.	.	.	.	[2f	.
=41	=41	=41	=41	=41	=41	=41	=41
2F	.	0r	.	0r	.	2f]	.
2G	.	.	.	.	.	1d	.
1E	.	.	.	.	.	.	.
*	*	*	*	*	*	*Xlig	*
.	.	.	.	.	.	2c#i	-ri-
=42	=42	=42	=42	=42	=42	=42	=42
2D	-ter	0r	.	2.d	Ma-	1d	-ae,
*col	*	*	*	*	*	*	*
2.G	mi-	.	.	.	.	.	.
.	.	.	.	4c	.	.	.
.	.	.	.	2d	.	1r	.
4F	.	.	.	.	.	.	.
*Xcol	*	*	*	*	*	*	*
2G	.	.	.	[2e	-ter	.	.
!!LO:LB:g=ap
=43	=43	=43	=43	=43	=43	=43	=43
*col	*	*	*	*	*	*	*
2.A	-se-	0r	.	4e]	.	0r	.
.	.	.	.	4d	.	.	.
.	.	.	.	2e	.	.	.
4G	.	.	.	.	.	.	.
*Xcol	*	*	*	*	*	*	*
2A	.	.	.	2.f	mi-	.	.
*col	*	*	*	*	*	*	*
[2B-	-ri-	.	.	.	.	.	.
.	.	.	.	4e	.	.	.
=44	=44	=44	=44	=44	=44	=44	=44
4B-]	.	0r	.	2f	.	0r	.
4A	.	.	.	.	.	.	.
*Xcol	*	*	*	*	*	*	*
2B-	.	.	.	2.g	-se-	.	.
*col	*	*	*	*	*	*	*
2.c	-cor-	.	.	.	.	.	.
.	.	.	.	4f	.	.	.
.	.	.	.	2g	.	.	.
4B-	.	.	.	.	.	.	.
*Xcol	*	*	*	*	*	*	*
=45	=45	=45	=45	=45	=45	=45	=45
2c	.	0r	.	2.a	-ri-	0r	.
*col	*	*	*	*	*	*	*
2.d	.	.	.	.	.	.	.
.	.	.	.	4g	.	.	.
.	.	.	.	2a	.	.	.
4c	.	.	.	.	.	.	.
*Xcol	*	*	*	*	*	*	*
2d	.	.	.	[2b-	-cor-	.	.
!!LO:LB:g=ap
=46	=46	=46	=46	=46	=46	=46	=46
2B-	.	1r	.	4b-]	.	0r	.
.	.	.	.	4a	.	.	.
2c	.	.	.	1g	.	.	.
1A	-di-	1c	Sis	.	.	.	.
.	.	.	.	2f#i	-di-	.	.
=47	=47	=47	=47	=47	=47	=47	=47
1G	-ae,	2B-	re-	1g	-ae,	1r	.
.	.	2d	.	.	.	.	.
1r	.	2c	.	1r	.	1cc	Sis
.	.	4B-	.	.	.	.	.
.	.	4A	.	.	.	.	.
=48	=48	=48	=48	=48	=48	=48	=48
0r	.	2G	-is	0r	.	2b-	re-
.	.	2B-	por-	.	.	2dd	.
.	.	2A	.	.	.	2cc	.
.	.	2c	.	.	.	4b-	.
.	.	.	.	.	.	4a	.
=49	=49	=49	=49	=49	=49	=49	=49
0r	.	2B-	.	0r	.	2g	-is
.	.	4A	.	.	.	2b-	por-
.	.	4G	.	.	.	.	.
.	.	1F	-ta	.	.	2a	.
.	.	.	.	.	.	2cc	.
!!LO:LB:g=ap
=50	=50	=50	=50	=50	=50	=50	=50
1r	.	2G	ve-	1r	.	2b-	.
.	.	2B-	.	.	.	4a	.
.	.	.	.	.	.	4g	.
1D	por-	1A	.	1d	por-	1f	-ta
=51	=51	=51	=51	=51	=51	=51	=51
2E-i	.	2.G	.	1B-	.	4g	ve-
.	.	.	.	.	.	4a	.
1G	-ta	.	.	.	.	4b-	.
.	.	4A	.	.	.	4cc	.
.	.	2B-	.	2G	-ta	2dd	.
*	*	*	*	*	*	*lig	*
2E-i	ve-	[2c	.	2g	ve-	[2ee-i	.
=52	=52	=52	=52	=52	=52	=52	=52
2F	.	2c]	.	2f	.	2ee-y]	.
2D	.	2d	.	1.a	-ni-	1dd	.
1A	-ni-	1e	-ni-	.	.	.	.
*	*	*	*	*	*	*Xlig	*
.	.	.	.	.	.	2cc#i	-ni-
=53	=53	=53	=53	=53	=53	=53	=53
1B-	-ae.	0d	-ae.	1f	-ae.	1dd	-ae.
1G	.	.	.	1g	.	1r	.
!!LO:LB:g=ap
=54	=54	=54	=54	=54	=54	=54	=54
1.B-	Ma-	1d	Ma-	1.f	Ma-	1dd	Ma-
.	.	1d	-ri-	.	.	1ff	-ri-
2B-	-ri-	.	.	2f	-ri-	.	.
=55	=55	=55	=55	=55	=55	=55	=55
1B-	-a,	2d	-a,	1f	-a,	2dd	-a,
.	.	1d	prop-	.	.	1b-	prop-
2B-	prop-	.	.	2f	prop-	.	.
2B-	-ter	2d	-ter	[2f	-ter	[2dd	.
=56	=56	=56	=56	=56	=56	=56	=56
2B-	fi-	2d	fi-	2f]	.	2dd]	.
2B-	-li-	2d	-li-	2f	fi-	4cc	.
.	.	.	.	.	.	4b-	.
[1F	-um	[1c	-um	1f	-li-	1a	-ter
=57	=57	=57	=57	=57	=57	=57	=57
1F]	.	1c]	.	1f	-um	2f	fi-
.	.	.	.	.	.	2.a	.
1F	Con-	1c	Con-	1f	Con-	.	.
.	.	.	.	.	.	4b-	.
.	.	.	.	.	.	[2cc	-li-
!!LO:LB:g=ap
=58	=58	=58	=58	=58	=58	=58	=58
2F	-fer	2c	-fer	2f	-fer	4cc]	.
.	.	.	.	.	.	4b-	.
1F	no-	1c	no-	1f	no-	4a	.
.	.	.	.	.	.	4g	.
.	.	.	.	.	.	1a	-um
2F	-bis	2c	-bis	2f	-bis	.	.
=59	=59	=59	=59	=59	=59	=59	=59
1.G	re-	1B-	re-	0d	re-	1.b-	Con-
.	.	[1B-	-me-	.	.	.	.
[2G	-me-	.	.	.	.	2a	-fer
=60	=60	=60	=60	=60	=60	=60	=60
2G]	.	2B-]	.	1B-	-me-	1g	no-
2G	-di-	2c	.	.	.	.	.
*	*	*lig	*	*	*	*	*
1D	.	1d	.	1A	.	1f	-bis
=61	=61	=61	=61	=61	=61	=61	=61
0E-X	.	1B-	.	1G	.	1.g	re-
*	*	*Xlig	*	*	*	*	*
*	*	*lig	*	*	*	*	*
.	.	1G	.	1c	.	.	.
.	.	.	.	.	.	2e-i	.
!!LO:LB:g=ap
=62	=62	=62	=62	=62	=62	=62	=62
1D	.	1A	.	1d	.	1f	-me-
*	*	*Xlig	*	*	*	*	*
2G	.	2B-	.	2e	.	2g	.
*	*	*	*	*	*	*lig	*
[2F	.	[2c	.	[2f	.	[2a	.
=63	=63	=63	=63	=63	=63	=63	=63
2F]	.	4c]	.	4f]	.	2a]	.
.	.	4B-	.	4e-i	.	.	.
2E-i	.	2G	.	2c	-di-	1g	.
1D	-um.	1A	-di-	1d	-um.	.	.
*	*	*	*	*	*	*Xlig	*
.	.	.	.	.	.	2f#i	-di-
=64	=64	=64	=64	=64	=64	=64	=64
0r	.	0G	-um.	2.B-	Bo-	1g	-um.
.	.	.	.	4c	.	.	.
.	.	.	.	2d	.	1r	.
.	.	.	.	2e-i	.	.	.
=65	=65	=65	=65	=65	=65	=65	=65
1G	Bo-	0r	.	2d	-ne	1b-	Bo-
.	.	.	.	1g	fi-	.	.
2G	-ne	.	.	.	.	2b-	-ne
2D	.	.	.	2f	.	2a	.
!!LO:LB:g=ap
=66	=66	=66	=66	=66	=66	=66	=66
1E-X	fi-	1B-	Bo-	1e-i	-li,	1g	fi-
1D	-li,	2B-	-ne	2r	.	1f	-li,
.	.	2A	.	2f	pre-	.	.
=67	=67	=67	=67	=67	=67	=67	=67
1E-X	pre-	1G	fi-	1g	-ce	1b-	pre-
1F	-ce	1F	-li,	1a	.	1a	-ce
=68	=68	=68	=68	=68	=68	=68	=68
1G	ma-	1B-	pre-	2d	ma-	1dd	ma-
.	.	.	.	2g	.	.	.
2A	.	2A	-ce	2c	.	2cc	.
2B-	.	2d	.	[2f	.	2b-	.
=69	=69	=69	=69	=69	=69	=69	=69
2F	.	2c	ma-	2f]	.	2a	.
2G	.	2B-	.	2e	.	1b-	.
1F	-tris	1c	.	1f	.	.	.
.	.	.	.	.	.	2a	.
!!LO:LB:g=ap
=70	=70	=70	=70	=70	=70	=70	=70
1r	.	1B-	-tris	1d	-tris	1b-	-tris
1D	Do-	1r	.	1f	Do-	1dd	Do-
=71	=71	=71	=71	=71	=71	=71	=71
2.D	-na	1r	.	2.f	-na	1.dd	-na
4E	.	.	.	4g	.	.	.
1F	.	1d	Do-	1a	.	.	.
.	.	.	.	.	.	2cc	.
=72	=72	=72	=72	=72	=72	=72	=72
1G	tu-	1.d	-na	1g	tu-	1b-	tu-
2D	-is	.	.	1f	-is	1a	-is
2F	.	2c	.	.	.	.	.
=73	=73	=73	=73	=73	=73	=73	=73
2G	re-	1B-	tu-	1e-X	re-	1g	re-
2E-i	.	.	.	.	.	.	.
2F	-gna	2A	-is	2d	.	2f	-gna
*	*	*	*	*	*	*lig	*
[2E-X	pa-	2B-	.	[2e-	-gna	[2g	pa-
!!LO:LB:g=ap
=74	=74	=74	=74	=74	=74	=74	=74
2E-]	.	2c	re-	2e-]	.	2g]	.
2F	.	2A	-gna	1.c	pa-	1f	.
1C	-tris,	1G	pa-	.	.	.	.
*	*	*	*	*	*	*Xlig	*
.	.	.	.	.	.	2e	.
=75	=75	=75	=75	=75	=75	=75	=75
*	*edit	*	*	*	*	*	*
1c	do-	0F	-tris,	2.A	.	1f	-tris,
.	.	.	.	4B-	.	.	.
*	*	*	*	*	*	*	*edit
1A	.	.	.	1c	-tris,	1ff	do-
=76	=76	=76	=76	=76	=76	=76	=76
2.F	-na	1r	.	1r	.	1.ff	-na
4G	.	.	.	.	.	.	.
*	*	*	*edit	*	*edit	*	*
1A	.	1f	do-	1c	do-	.	.
.	.	.	.	.	.	2ee	.
=77	=77	=77	=77	=77	=77	=77	=77
*	*	*	*	*	*	*lig	*
1B-	tu-	1.f	-na	4d	-na	1dd	tu-
.	.	.	.	4e	.	.	.
.	.	.	.	4f	.	.	.
.	.	.	.	4g	.	.	.
2F	-is	.	.	1a	.	1cc	-is
2A	.	2e	.	.	.	.	.
*	*	*	*	*	*	*Xlig	*
!!LO:LB:g=ap
=78	=78	=78	=78	=78	=78	=78	=78
2B-	re-	1d	tu-	1g	tu-	1b-	re-
2G	.	.	.	.	.	.	.
2A	.	2c	-is	2f	-is	2a	-gna
*	*	*	*	*	*	*lig	*
[2G	.	2B-	re-	[2g	re-	[2b-	pa-
=79	=79	=79	=79	=79	=79	=79	=79
2G]	.	1G	-gna	2g]	.	2b-]	.
2E	-gna	.	.	2c	-gna	1g	.
1D	pa-	1A	pa-	1d	pa-	.	.
*	*	*	*	*	*	*Xlig	*
.	.	.	.	.	.	2f#i	.
=80	=80	=80	=80	=80	=80	=80	=80
0Gl	-tris.	0Gl	-tris.	0dl	-tris.	0gl	-tris.
==	==	==	==	==	==	==	==
*-	*-	*-	*-	*-	*-	*-	*-
!!!RDF**kern: l = terminal long
!!!RDF**kern: i = editorial accidental
!!!system-decoration: [*]
!!!PTL: MCE 6: Gaspar van Weerbeke, Quam pulchra es
!!!ISBN: 978-3-9524701-7-6
!!!URL: https://www.gaffurius-codices.ch/s/portal/page/mce06
!!!PPR: Gaffurius Codices Online, Motet Cycles Edition (https://www.gaffurius-codices.ch/s/portal/page/editions)
!!!PC#: MCE 06-07
!!!PDT: 2021
!!!PED: Pavanello, Agnese
!!!YEC: Copyright 2021, Pavanello, Agnese
!!!YEM: CC-BY-NC 4.0 (https://creativecommons.org/licenses/by-nc/4.0/legalcode)
!!!ENC: Wissmann, Rolf
!!!EED: Sapp, Craig Stuart
!!!EEV: 2022/02/02
!!!title: @{OPR} &mdash; @{OMV}. @{OTL}
!!!muse2ps: C^@{COM}^i2I150v90,90,90,120c122z18l2700t130
